X: 5366
T: Buckley's Fancy
R: reel
M: 4/4
K: Gmajor
|:G2BG DGBG|cGcd edBA|G2BG DGBG|A3G FDEF|
G2BG DGBG|cGcd efga|beae gedB|GB (3AGF G2G2:|
g3a gede|g2bg ageg|a3b agef|g2bg eBde|
g3a gede|g2bg agef|gbaf gedB|GB (3AGF G2G2:|

